icons/mobile/24/svg/accessibility-24.svg

<svg width="24" height="24" viewBox="0 0 24 24" fill="none" xmlns="http://www.w3.org/2000/svg">
<path d="M6.51074 9.65527C6.57874 9.23127 6.97834 8.94177 7.40234 9.00977C10.4571 9.37371 13.5438 9.37372 16.5986 9.00977C17.0226 8.94177 17.4222 9.22932 17.4902 9.65332C17.559 10.0772 17.2706 10.4789 16.8467 10.5469C15.7579 10.6798 14.6651 10.7539 13.5713 10.7979V13.335L14.6416 17.335C14.7516 17.7539 14.5 18.1829 14.0811 18.293C13.6612 18.4029 13.2342 18.1522 13.124 17.7324L12.1807 14.208C12.1526 14.1321 12.0809 14.082 12.001 14.082C11.921 14.083 11.8503 14.1331 11.8223 14.208L10.8789 17.7285C10.7689 18.1485 10.3419 18.401 9.92285 18.291C9.5029 18.182 9.25036 17.753 9.36035 17.333L10.4287 13.3447H10.4307V10.7998C9.33587 10.7558 8.24309 10.6818 7.1543 10.5488C6.7304 10.4798 6.44292 10.0792 6.51074 9.65527Z" fill="black"/>
<path d="M12 5.43848C12.8627 5.43848 13.5615 6.13734 13.5615 7C13.5615 7.86266 12.8627 8.56152 12 8.56152C11.1373 8.56152 10.4385 7.86266 10.4385 7C10.4385 6.13733 11.1373 5.43848 12 5.43848Z" fill="black"/>
<path fill-rule="evenodd" clip-rule="evenodd" d="M12 2C17.5228 2 22 6.47715 22 12C22 17.5228 17.5228 22 12 22C6.47715 22 2 17.5228 2 12C2 6.47715 6.47715 2 12 2ZM12 3.75C7.44365 3.75 3.75 7.44365 3.75 12C3.75 16.5563 7.44365 20.25 12 20.25C16.5563 20.25 20.25 16.5563 20.25 12C20.25 7.44365 16.5563 3.75 12 3.75Z" fill="black"/>
</svg>

<!-- This Source Code Form is subject to the terms of the Mozilla Public
   - License, v. 2.0. If a copy of the MPL was not distributed with this
   - file, You can obtain one at http://mozilla.org/MPL/2.0/. -->
<svg xmlns="http://www.w3.org/2000/svg" width="24" height="24" fill="none" viewBox="0 0 24 24">
    <path fill="#000" d="M6.51 9.655a.78.78 0 0 1 .892-.645c3.055.364 6.142.364 9.197 0a.778.778 0 1 1 .248 1.537 40 40 0 0 1-3.276.25v2.538l1.07 4a.785.785 0 0 1-1.517.397l-.943-3.524a.19.19 0 0 0-.18-.126.19.19 0 0 0-.179.126l-.943 3.52a.784.784 0 1 1-1.519-.395l1.069-3.988h.002V10.8a40 40 0 0 1-3.277-.251.78.78 0 0 1-.643-.894M12 5.438a1.561 1.561 0 1 1 0 3.123 1.561 1.561 0 0 1 0-3.123" />
    <path fill="#000" fill-rule="evenodd" d="M12 2c5.523 0 10 4.477 10 10s-4.477 10-10 10S2 17.523 2 12 6.477 2 12 2m0 1.75a8.25 8.25 0 1 0 0 16.5 8.25 8.25 0 0 0 0-16.5" clip-rule="evenodd" />
</svg>
